src/components/AppLayout/Header/components/Notifications/assets/bell.svg

<svg width="52" height="49" viewBox="0 0 52 49" fill="none" xmlns="http://www.w3.org/2000/svg">
<circle cx="25" cy="32" r="17" fill="#F6F7F8"/>
<path fill-rule="evenodd" clip-rule="evenodd" d="M27.9189 14.2478C30.0621 12.1683 32.969 11 36 11C39.031 11 41.9379 12.1683 44.0811 14.2478C46.2244 16.3273 47.4284 19.1478 47.4284 22.0887C47.4284 26.9366 48.496 29.8906 49.435 31.5609C49.9077 32.4017 50.3605 32.9402 50.6592 33.2461C50.8091 33.3997 50.9218 33.4963 50.981 33.5441C51.0016 33.5608 51.0157 33.5715 51.0227 33.5767C51.8321 34.1249 52.1889 35.1177 51.9017 36.0377C51.6099 36.9731 50.7214 37.6128 49.7141 37.6128H22.2859C21.2786 37.6128 20.3901 36.9731 20.0983 36.0377C19.8111 35.1177 20.1679 34.1249 20.9773 33.5767C20.9843 33.5715 20.9984 33.5608 21.019 33.5441C21.0782 33.4963 21.1909 33.3997 21.3408 33.2461C21.6395 32.9402 22.0923 32.4017 22.565 31.5609C23.504 29.8906 24.5716 26.9366 24.5716 22.0887C24.5716 19.1478 25.7756 16.3273 27.9189 14.2478ZM45.1489 33.1773C43.915 30.7773 42.8571 27.2156 42.8571 22.0887C42.8571 20.3241 42.1346 18.6319 40.8487 17.3841C39.5627 16.1364 37.8186 15.4355 36 15.4355C34.1814 15.4355 32.4373 16.1364 31.1513 17.3841C29.8654 18.6319 29.1429 20.3241 29.1429 22.0887C29.1429 27.2156 28.085 30.7773 26.8511 33.1773H45.1489ZM32.2169 39.3907C33.3089 38.7761 34.7075 39.1368 35.341 40.1962C35.4079 40.3082 35.5041 40.4012 35.6197 40.4659C35.7354 40.5305 35.8665 40.5645 36 40.5645C36.1335 40.5645 36.2646 40.5305 36.3803 40.4659C36.4959 40.4012 36.5921 40.3082 36.659 40.1962C37.2924 39.1368 38.6911 38.7761 39.7831 39.3907C40.875 40.0053 41.2467 41.3623 40.6133 42.4218C40.1445 43.206 39.4715 43.8569 38.6619 44.3094C37.8523 44.7618 36.9343 45 36 45C35.0657 45 34.1477 44.7618 33.3381 44.3094C32.5285 43.8569 31.8555 43.206 31.3867 42.4218C30.7533 41.3623 31.125 40.0053 32.2169 39.3907Z" fill="#EEEFF0"/>
<path d="M0.48999 18H6.17399V16.488H2.93999L2.92599 16.46L6.25799 12.4V11.154H0.74199V12.666H3.76599L3.77999 12.708L0.48999 16.74V18Z" fill="#EEEFF0"/>
<path d="M10.49 14H16.174V12.488H12.94L12.926 12.46L16.258 8.39999V7.15399H10.742V8.66599H13.766L13.78 8.70799L10.49 12.74V14Z" fill="#EEEFF0"/>
<path d="M2.48999 6.99999H8.17399V5.48799H4.93999L4.92599 5.45999L8.25799 1.39999V0.153992H2.74199V1.66599H5.76599L5.77999 1.70799L2.48999 5.73999V6.99999Z" fill="#EEEFF0"/>
</svg>

<svg width="52" height="49" fill="none" xmlns="http://www.w3.org/2000/svg"><circle cx="25" cy="32" r="17" fill="#F6F7F8"/><path fill-rule="evenodd" clip-rule="evenodd" d="M27.919 14.248C30.062 12.168 32.969 11 36 11c3.031 0 5.938 1.168 8.081 3.248s3.347 4.9 3.347 7.84c0 4.849 1.068 7.803 2.007 9.473.473.84.925 1.38 1.224 1.685a3.786 3.786 0 0 0 .364.33 2.183 2.183 0 0 1 .879 2.462c-.292.935-1.18 1.575-2.188 1.575H22.286c-1.007 0-1.896-.64-2.188-1.575-.287-.92.07-1.913.88-2.461a3.786 3.786 0 0 0 .364-.33c.298-.307.75-.845 1.223-1.686.939-1.67 2.007-4.624 2.007-9.472 0-2.941 1.204-5.762 3.347-7.841zm17.23 18.93c-1.234-2.4-2.292-5.962-2.292-11.09a6.555 6.555 0 0 0-2.008-4.704A6.965 6.965 0 0 0 36 15.435a6.96 6.96 0 0 0-4.849 1.95 6.555 6.555 0 0 0-2.008 4.704c0 5.127-1.058 8.688-2.292 11.088H45.15zM32.217 39.39c1.092-.615 2.49-.254 3.124.805a.752.752 0 0 0 .279.27.78.78 0 0 0 .76 0 .752.752 0 0 0 .279-.27c.633-1.06 2.032-1.42 3.124-.805 1.092.614 1.464 1.971.83 3.03a5.258 5.258 0 0 1-1.951 1.888A5.46 5.46 0 0 1 36 45a5.46 5.46 0 0 1-2.662-.69 5.258 5.258 0 0 1-1.951-1.888c-.634-1.06-.262-2.417.83-3.031z" fill="#EEEFF0"/><path d="M.49 18h5.684v-1.512H2.94l-.014-.028 3.332-4.06v-1.246H.742v1.512h3.024l.014.042L.49 16.74V18zm10-4h5.684v-1.512H12.94l-.014-.028 3.332-4.06V7.154h-5.516v1.512h3.024l.014.042-3.29 4.032V14zm-8-7h5.684V5.488H4.94l-.014-.028L8.258 1.4V.154H2.742v1.512h3.024l.014.042L2.49 5.74V7z" fill="#EEEFF0"/></svg>
